src/4-icons/email.svg

<svg width="260" height="260" viewBox="0 0 260 260" fill="none" xmlns="http://www.w3.org/2000/svg"><path fill-rule="evenodd" clip-rule="evenodd" d="M0 48a3 3 0 0 1 3-3h254a3 3 0 0 1 3 3v164a3 3 0 0 1-3 3H3a3 3 0 0 1-3-3V48Zm237.27 11H22.469l107.4 81.341L237.27 59ZM14 69.983V201h232V69.785L134.816 153.99a6.922 6.922 0 0 1-4.947 1.365 6.924 6.924 0 0 1-4.947-1.365L14 69.983Z" fill="#000" opacity=".9"/></svg>

<svg width="260" height="260" viewBox="0 0 260 260" fill="none" xmlns="http://www.w3.org/2000/svg">
<g opacity="0.9">
<path fill-rule="evenodd" clip-rule="evenodd" d="M0 48C0 46.3432 1.34315 45 3 45H257C258.657 45 260 46.3431 260 48V212C260 213.657 258.657 215 257 215H3C1.34314 215 0 213.657 0 212V48ZM237.27 59H22.4689L129.869 140.341L237.27 59ZM14 69.983V201H246V69.7849L134.816 153.991C133.355 155.098 131.58 155.544 129.869 155.356C128.159 155.544 126.384 155.098 124.922 153.991L14 69.983Z" fill="black"/>
</g>
</svg>
